src/file-python.svg

<svg width="17" height="16" viewBox="0 0 17 16" fill="none" xmlns="http://www.w3.org/2000/svg">
<g id="pythonFile">
<path id="Shape" fill-rule="evenodd" clip-rule="evenodd" d="M7 1L3 5H7V1Z" fill="#9AA7B0" fill-opacity="0.8"/>
<path id="Shape_2" fill-rule="evenodd" clip-rule="evenodd" d="M8 15V14.297C8 14.297 7.05005 14.1511 6.5498 13.3741C6.04956 12.5972 5.93457 11.4361 6.19824 10.4883C6.43894 9.35763 7.42625 8.5414 8.582 8.51758V8.30371C8.54239 7.73544 8.73743 7.17576 9.12164 6.75519C9.50586 6.33462 10.0091 6.01179 10.5787 6C11.0159 5.92636 11.495 5.96724 11.9384 5.96679C12.416 5.96431 13 6.07714 13 6.07714V1H8V6H3V15H8Z" fill="#9AA7B0" fill-opacity="0.8"/>
<path id="path1948" fill-rule="evenodd" clip-rule="evenodd" d="M10.4435 6.96695C10.7897 6.90845 11.1402 6.87885 11.4913 6.87848C11.8739 6.87631 12.256 6.90591 12.6337 6.96695C13.2255 7.02433 13.6892 7.50111 13.73 8.09433V10.1595C13.731 10.4511 13.616 10.7311 13.4103 10.9378C13.2047 11.1445 12.9253 11.261 12.6337 11.2616H10.4435C9.69916 11.27 9.09438 11.8648 9.07364 12.6088V13.5998H8.31975C7.71154 13.5749 7.2145 13.1059 7.15437 12.5002C6.94854 11.7799 6.94854 11.0163 7.15437 10.296C7.28352 9.64553 7.86121 9.18182 8.52421 9.19643H11.5399V8.92091H9.34715V8.09433C9.34715 7.46846 9.51561 7.12909 10.4435 6.96695ZM10.6885 7.79685C10.6239 7.64263 10.4727 7.54254 10.3055 7.54328C10.0775 7.54452 9.89353 7.72989 9.894 7.95783C9.89451 8.12504 9.99572 8.27547 10.1504 8.33893C10.3051 8.4024 10.4828 8.36639 10.6006 8.24772C10.7184 8.12904 10.7531 7.95108 10.6885 7.79685Z" fill="#40A0CF" fill-opacity="0.9"/>
<path id="path1950" fill-rule="evenodd" clip-rule="evenodd" d="M14.0035 10.1595V9.19643H14.8265C15.4174 9.23306 15.8879 9.70501 15.9228 10.296C16.1478 11.0135 16.1478 11.7827 15.9228 12.5002C15.7012 13.1601 15.4637 13.5998 14.8265 13.5998H11.5399V13.8753H13.7301V14.7018C13.6648 15.2792 13.2107 15.7356 12.6337 15.8039C11.9203 16.0245 11.1569 16.0245 10.4435 15.8039C9.86963 15.7293 9.41881 15.2761 9.34714 14.7018V12.6367C9.35262 12.0325 9.83938 11.5432 10.4435 11.5346H12.6337C13.3858 11.5192 13.9911 10.9117 14.0035 10.1595ZM13.155 14.6805C13.0905 14.526 12.9392 14.4256 12.7717 14.4263L12.7717 14.4264C12.6625 14.4264 12.5578 14.4698 12.4806 14.5471C12.4034 14.6244 12.3601 14.7292 12.3603 14.8384C12.3597 15.0058 12.4603 15.157 12.6149 15.2213C12.7696 15.2855 12.9477 15.2501 13.066 15.1317C13.1843 15.0132 13.2194 14.835 13.155 14.6805Z" fill="#FFC900" fill-opacity="0.9"/>
</g>
</svg>

<svg xmlns="http://www.w3.org/2000/svg" width="16" height="16" fill="currentColor" viewBox="0 0 16 16">
  <path fill="#9AA7B0" fill-opacity=".8" d="M7 1 3 5h4V1Z"/>
  <path fill="#9AA7B0" fill-opacity=".8" d="M8 15v-.703s-.95-.146-1.45-.923-.615-1.938-.352-2.886a2.49 2.49 0 0 1 2.384-1.97v-.214a2.081 2.081 0 0 1 .54-1.549c.384-.42.887-.743 1.457-.755.437-.074.916-.033 1.36-.033a6.474 6.474 0 0 1 1.061.11V1H8v5H3v9h5Z"/>
  <path fill="#40A0CF" fill-opacity=".9" d="M10.444 6.967a6.329 6.329 0 0 1 1.047-.089c.383-.002.765.028 1.143.089a1.217 1.217 0 0 1 1.096 1.127v2.066a1.098 1.098 0 0 1-1.096 1.102h-2.19a1.386 1.386 0 0 0-1.37 1.347v.99H8.32A1.221 1.221 0 0 1 7.154 12.5a4.011 4.011 0 0 1 0-2.204c.13-.65.707-1.114 1.37-1.1h3.016v-.275H9.347v-.827c0-.626.169-.965 1.097-1.127Zm.244.83a.413.413 0 1 0-.762.32.413.413 0 0 0 .762-.32Z"/>
  <path fill="#FFC900" fill-opacity=".9" d="M14.004 10.16v-.964h.717c.591.037.93.5 1.096 1.1a3.683 3.683 0 0 1 0 2.204c-.221.66-.459 1.1-1.096 1.1H11.54v.275h2.19v.827a1.251 1.251 0 0 1-1.096 1.102c-.714.22-1.477.22-2.19 0a1.27 1.27 0 0 1-1.097-1.102v-2.065a1.112 1.112 0 0 1 1.097-1.102h2.19a1.399 1.399 0 0 0 1.37-1.376Zm-.849 4.52a.413.413 0 1 0-.763.319.413.413 0 0 0 .763-.319Z"/>
</svg>
